components/ui-node-icon/src/crossJoin/crossJoin.small.svg

<svg width="16" height="16" viewBox="0 0 16 16" fill="none" xmlns="http://www.w3.org/2000/svg">
  <path fill-rule="evenodd" clip-rule="evenodd" d="M5.26383 11.021C5.4376 10.7314 5.59006 10.3873 5.71049 10H6.75037C6.28744 11.7659 5.23019 13 4 13C2.34315 13 1 10.7614 1 8C1 5.23858 2.34315 3 4 3C5.23019 3 6.28744 4.2341 6.75037 6H5.71049C5.59006 5.61268 5.4376 5.26859 5.26383 4.97896C4.81707 4.23436 4.33917 4 4 4C3.66083 4 3.18293 4.23436 2.73617 4.97896C2.30135 5.70366 2 6.76937 2 8C2 9.23063 2.30135 10.2963 2.73617 11.021C3.18293 11.7656 3.66083 12 4 12C4.33917 12 4.81707 11.7656 5.26383 11.021ZM12 13C10.7698 13 9.71256 11.7659 9.24963 10H10.2895C10.4099 10.3873 10.5624 10.7314 10.7362 11.021C11.1829 11.7656 11.6608 12 12 12C12.3392 12 12.8171 11.7656 13.2638 11.021C13.6986 10.2963 14 9.23063 14 8C14 6.76937 13.6986 5.70366 13.2638 4.97896C12.8171 4.23436 12.3392 4 12 4C11.6608 4 11.1829 4.23436 10.7362 4.97896C10.5624 5.26859 10.4099 5.61268 10.2895 6H9.24963C9.71256 4.2341 10.7698 3 12 3C13.6569 3 15 5.23858 15 8C15 10.7614 13.6569 13 12 13ZM4.69696 6.04043C4.54248 5.97422 4.36507 5.99006 4.22475 6.08258C4.08444 6.1751 4 6.33193 4 6.5V9.5C4 9.66807 4.08444 9.8249 4.22475 9.91742C4.36507 10.0099 4.54248 10.0258 4.69696 9.95957L8 8.54398L11.303 9.95957C11.4575 10.0258 11.6349 10.0099 11.7752 9.91742C11.9156 9.8249 12 9.66807 12 9.5V6.5C12 6.33193 11.9156 6.1751 11.7752 6.08258C11.6349 5.99006 11.4575 5.97422 11.303 6.04043L8 7.45602L4.69696 6.04043ZM5 7.25827L6.7307 8L5 8.74173V7.25827ZM11 8.74173L9.2693 8L11 7.25827V8.74173Z" fill="currentColor"/>
</svg>

<svg xmlns="http://www.w3.org/2000/svg" width="16" height="16" fill="none" viewBox="0 0 16 16">
  <path fill="currentColor" fill-rule="evenodd" d="M5.264 11.021A4.71 4.71 0 0 0 5.71 10h1.04c-.463 1.766-1.52 3-2.75 3-1.657 0-3-2.239-3-5s1.343-5 3-5c1.23 0 2.287 1.234 2.75 3H5.71a4.71 4.71 0 0 0-.446-1.021C4.817 4.234 4.339 4 4 4c-.34 0-.817.234-1.264.979C2.301 5.704 2 6.769 2 8c0 1.23.301 2.296.736 3.021.447.745.925.979 1.264.979.34 0 .817-.234 1.264-.979ZM12 13c-1.23 0-2.287-1.234-2.75-3h1.04c.12.387.272.731.446 1.021.447.745.925.979 1.264.979.34 0 .817-.234 1.264-.979.435-.725.736-1.79.736-3.021 0-1.23-.301-2.296-.736-3.021C12.817 4.234 12.339 4 12 4c-.34 0-.817.234-1.264.979-.174.29-.326.634-.447 1.021H9.25C9.714 4.234 10.77 3 12 3c1.657 0 3 2.239 3 5s-1.343 5-3 5ZM4.697 6.04A.5.5 0 0 0 4 6.5v3a.5.5 0 0 0 .697.46L8 8.544l3.303 1.416A.5.5 0 0 0 12 9.5v-3a.5.5 0 0 0-.697-.46L8 7.456 4.697 6.04ZM5 7.258 6.73 8 5 8.742V7.258Zm6 1.484L9.27 8 11 7.258v1.484Z" clip-rule="evenodd"/>
</svg>
